X:1
T:Simpson, CM
T:Louis Spohr (1784-1859)
T:Simpson, CM
T:Public Domain
C:Louis Spohr (1784-1859)
Z:Public Domain
%%score ( 1 2 ) ( 3 4 )
L:1/8
M:3/4
K:G
V:1 treble 
V:2 treble 
V:3 bass 
V:4 bass 
V:1
 D2 | [GB]4 [GB]2 | [Gd]4 G2 | [GB]4 [FA]2 | G4 [GB]2 | (e2 d2) [GB]2 | [Gc]4 [Fd]2 | [GB]4 [GB]2 | %8
 [FA]4 [^E^G]2 | [FA]4 [^GB]2 | [Ac]4 [Ae]2 | [Ad]4 [Ac]2 | [GB]4 [Gc]2 | [GA]4 [FA]2 | G4 |] %15
V:2
 D2 | x6 | x4 G2 | x6 | G4 x2 | G4 x2 | x6 | x6 | x6 | x6 | x6 | x6 | x6 | x6 | G4 |] %15
V:3
 [D,D]2 | [G,D]4 [G,D]2 | [B,D]4 [G,B,]2 | [D,D]4 [D,C]2 | [G,B,]4 [G,D]2 | (C2 [B,D]2) [E,E]2 | %6
 [A,E]4 [D,D]2 | [G,D]4 [G,D]2 | [D,D]4 [D,B,]2 | D,2 C,2 [B,,D]2 | (A,,2 A,2) [G,^C]2 | %11
 [F,D]4 [F,D]2 | [G,D]4 [C,E]2 | [D,C]4 [D,C]2 | [G,,B,]4 |] %15
V:4
 x2 | x6 | x6 | x6 | x6 | C2 x4 | x6 | x6 | x6 | A,4 x2 | ^C4 x2 | x6 | x6 | x6 | x4 |] %15

